X: 3447
T: Better Off Without Him
R: jig
M: 6/8
K: Ddorian
^c|:dDD DEF|EDE CA,G,|A,DD DEG|AdB c2 d|
ADD DEF|EDE CA,G,|A,3 ECA,|A,EA, D3:|
K: A Mix
c3 cBA|AFE EFE|DFA d3|dfd e2 d|
c3 cBA|AFE EFE|DFA ded|cAG A3:|

